assets/images/ico_logout.svg

<svg width="16" height="14" viewBox="0 0 16 14" fill="none" xmlns="http://www.w3.org/2000/svg">
<path d="M1.31111 7.45H11.0817L9.38921 9.08202C9.2036 9.26101 9.2036 9.53899 9.38921 9.71798C9.47907 9.80463 9.59405 9.85 9.71111 9.85C9.82817 9.85 9.94315 9.80463 10.033 9.71798L12.5219 7.31798C12.7075 7.13899 12.7075 6.86101 12.5219 6.68202L10.033 4.28202C9.85046 4.10599 9.57176 4.10599 9.38921 4.28202C9.2036 4.46101 9.2036 4.73899 9.38921 4.91798L11.0817 6.55H1.31111C1.06235 6.55 0.85 6.74706 0.85 7C0.85 7.25294 1.06235 7.45 1.31111 7.45ZM13.7556 0.85H3.8C3.0379 0.85 2.40556 1.45206 2.40556 2.2V4.6C2.40556 4.85294 2.6179 5.05 2.86667 5.05C3.11543 5.05 3.32778 4.85294 3.32778 4.6V2.2C3.32778 1.95794 3.53543 1.75 3.8 1.75H13.7556C14.0201 1.75 14.2278 1.95794 14.2278 2.2V11.8C14.2278 12.0421 14.0201 12.25 13.7556 12.25H3.8C3.53543 12.25 3.32778 12.0421 3.32778 11.8V9.4C3.32778 9.14706 3.11543 8.95 2.86667 8.95C2.6179 8.95 2.40556 9.14706 2.40556 9.4V11.8C2.40556 12.5479 3.0379 13.15 3.8 13.15H13.7556C14.5177 13.15 15.15 12.5479 15.15 11.8V2.2C15.15 1.45206 14.5177 0.85 13.7556 0.85Z" fill="white" stroke="white" stroke-width="0.3"/>
</svg>

<svg width="16" height="14" fill="none" xmlns="http://www.w3.org/2000/svg"><path d="M1.311 7.45h9.77L9.39 9.082a.433.433 0 0 0 0 .636c.09.087.205.132.322.132a.463.463 0 0 0 .322-.132l2.489-2.4a.433.433 0 0 0 0-.636l-2.489-2.4a.458.458 0 0 0-.644 0 .433.433 0 0 0 0 .636l1.693 1.632h-9.77A.457.457 0 0 0 .85 7c0 .253.212.45.461.45zM13.756.85H3.8c-.762 0-1.394.602-1.394 1.35v2.4c0 .253.212.45.46.45a.457.457 0 0 0 .462-.45V2.2c0-.242.207-.45.472-.45h9.956c.264 0 .472.208.472.45v9.6c0 .242-.208.45-.472.45H3.8a.463.463 0 0 1-.472-.45V9.4a.457.457 0 0 0-.461-.45.457.457 0 0 0-.461.45v2.4c0 .748.632 1.35 1.394 1.35h9.956c.762 0 1.394-.602 1.394-1.35V2.2c0-.748-.632-1.35-1.394-1.35z" fill="#fff" stroke="#fff" stroke-width=".3"/></svg>
